svg/color/vtc.svg

<svg height="32" viewBox="0 0 32 32" width="32" xmlns="http://www.w3.org/2000/svg"><g fill="none" fill-rule="evenodd"><circle cx="16" cy="16" fill="#048657" r="16"/><path d="m2.63199707 16.5694474 1.94992828-2.2205201h6.93826505l4.2624857 5.4380087 11.1554036-15.45300792c.6643263.59575737 1.284071 1.27550844 1.8592338 2.03925323.5751631.76374478 1.073982 1.57944608 1.4964567 2.44710386l-13.694845 18.94239663c-.2587929.2719005-.5308759.4078507-.8162491.4078507s-.5725719-.1359502-.8615962-.4078507l-8.66130931-11.1932344z" fill="#fff" fill-rule="nonzero"/></g></svg>

<svg xmlns="http://www.w3.org/2000/svg" width="32" height="32" viewBox="0 0 32 32">
  <g fill="none" fill-rule="evenodd">
    <circle cx="16" cy="16" r="16" fill="#048657"/>
    <path fill="#FFF" fill-rule="nonzero" d="M2.63199707,16.5694474 L4.58192535,14.3489273 L11.5201904,14.3489273 L15.7826761,19.786936 L26.9380797,4.33392808 C27.602406,4.92968545 28.2221507,5.60943652 28.7973135,6.37318131 C29.3724766,7.13692609 29.8712955,7.95262739 30.2937702,8.82028517 L16.5989252,27.7626818 C16.3401323,28.0345823 16.0680493,28.1705325 15.7826761,28.1705325 C15.4973029,28.1705325 15.2101042,28.0345823 14.9210799,27.7626818 L6.25977059,16.5694474 L2.63199707,16.5694474 Z"/>
  </g>
</svg>
